src/shared/assets/images/Boost/BoostIcon.svg

<svg width="58" height="58" viewBox="0 0 58 58" fill="none" xmlns="http://www.w3.org/2000/svg">
  <!-- Круглая обводка -->
  <circle cx="29" cy="29" r="28" stroke="#BA52F5" stroke-width="2" fill="none"/>

  <!-- Ваш контент с молнией -->
  <g filter="url(#filter0_d_1_14269)">
    <rect x="6" y="4" width="46" height="46" rx="23" fill="white" fill-opacity="0.01" shape-rendering="crispEdges"/>
    <g clip-path="url(#clip0_1_14269)">
      <path d="M33.5758 29.3207C34.3084 28.587 34.1623 27.8545 33.355 27.3404L31.8888 26.4607C31.1551 26.0202 30.5686 24.9944 30.7894 24.0411L32.6225 16.3395C32.8421 15.4598 32.4753 15.2401 31.7427 15.8266L22.5761 24.6276C21.8424 25.3613 21.9896 26.0938 22.7946 26.6079L24.262 27.4876C24.9957 27.9269 25.5822 28.9539 25.3625 29.9808L23.4558 37.6076C23.2362 38.561 23.6755 38.7806 24.3356 38.1205L33.5758 29.3207Z" fill="#B555EE"/>
    </g>
  </g>

  <defs>
    <filter id="filter0_d_1_14269" x="0" y="0" width="58" height="58" filterUnits="userSpaceOnUse" color-interpolation-filters="sRGB">
      <feFlood flood-opacity="0" result="BackgroundImageFix"/>
      <feColorMatrix in="SourceAlpha" type="matrix" values="0 0 0 0 0 0 0 0 0 0 0 0 0 0 0 0 0 0 127 0" result="hardAlpha"/>
      <feOffset dy="2"/>
      <feGaussianBlur stdDeviation="3"/>
      <feComposite in2="hardAlpha" operator="out"/>
      <feColorMatrix type="matrix" values="0 0 0 0 0.396078 0 0 0 0 0.431373 0 0 0 0 0.482353 0 0 0 0.12 0"/>
      <feBlend mode="normal" in2="BackgroundImageFix" result="effect1_dropShadow_1_14269"/>
      <feBlend mode="normal" in="SourceGraphic" in2="effect1_dropShadow_1_14269" result="shape"/>
    </filter>
    <clipPath id="clip0_1_14269">
      <rect width="27.6" height="27.6" fill="white" transform="translate(15.2 13.2)"/>
    </clipPath>
  </defs>
</svg>

<svg xmlns="http://www.w3.org/2000/svg" width="58" height="58" fill="none"><circle cx="29" cy="29" r="28" stroke="#BA52F5" stroke-width="2"/><g filter="url(#a)"><rect width="46" height="46" x="6" y="4" fill="#fff" fill-opacity=".01" rx="23" shape-rendering="crispEdges"/><g clip-path="url(#b)"><path fill="#B555EE" d="M33.576 29.32c.732-.733.586-1.465-.221-1.98l-1.466-.88c-.734-.44-1.32-1.466-1.1-2.419l1.834-7.701c.22-.88-.148-1.1-.88-.513l-9.167 8.8c-.734.734-.586 1.467.219 1.98l1.467.88c.734.44 1.32 1.467 1.1 2.494l-1.906 7.627c-.22.953.22 1.173.88.513z"/></g></g><defs><clipPath id="b"><path fill="#fff" d="M15.2 13.2h27.6v27.6H15.2z"/></clipPath><filter id="a" width="58" height="58" x="0" y="0" color-interpolation-filters="sRGB" filterUnits="userSpaceOnUse"><feFlood flood-opacity="0" result="BackgroundImageFix"/><feColorMatrix in="SourceAlpha" result="hardAlpha" values="0 0 0 0 0 0 0 0 0 0 0 0 0 0 0 0 0 0 127 0"/><feOffset dy="2"/><feGaussianBlur stdDeviation="3"/><feComposite in2="hardAlpha" operator="out"/><feColorMatrix values="0 0 0 0 0.396078 0 0 0 0 0.431373 0 0 0 0 0.482353 0 0 0 0.12 0"/><feBlend in2="BackgroundImageFix" result="effect1_dropShadow_1_14269"/><feBlend in="SourceGraphic" in2="effect1_dropShadow_1_14269" result="shape"/></filter></defs></svg>
